X:1
T:Chevy Chase
M:4/4
L:1/4
K:C
 E| E3/2 D/2 C B,| C3/2 C/2 C E| F E D C| D3| E| F D G3/2 F/2| E D C G|\
 E C G, D| C3||
